raw/symbols/stg.svg

<svg width="42" height="42" viewBox="0 0 42 42" fill="none" xmlns="http://www.w3.org/2000/svg">
<path d="M0 21C0 9.40202 9.40202 0 21 0C32.598 0 42 9.40202 42 21C42 32.598 32.598 42 21 42C9.40202 42 0 32.598 0 21Z" fill="#959696"/>
<circle cx="21" cy="21" r="19" fill="#030303"/>
<path d="M29.2297 20.9377C29.4205 21.9218 28.8479 22.4298 28.0526 22.7155C25.444 23.6679 23.6306 25.3821 22.7399 28.0488C22.4536 28.8742 21.8809 29.2551 20.9265 29.2869C19.9403 29.2869 19.4313 28.8107 19.145 28.017C18.2225 25.3821 16.4409 23.6361 13.8005 22.7155C12.9734 22.4298 12.5916 21.8584 12.6234 20.906C12.6234 19.9219 13.1006 19.4139 13.8959 19.1282C16.5046 18.2393 18.2225 16.5251 19.1132 13.9219C19.4313 13.033 20.004 12.6521 21.022 12.6521C22.04 12.6521 22.4854 13.2235 22.7399 13.9854C23.6306 16.5886 25.3803 18.3028 27.989 19.16C28.8479 19.4457 29.4205 19.9536 29.2297 20.9377Z" fill="#EEEEEE"/>
<path d="M5.01784 16.8103C5.78134 14.4612 6.83116 12.2707 8.4218 10.3342C10.3306 8.01679 12.8438 6.55649 15.5478 5.41364C16.2159 5.12793 17.0749 4.71523 17.6475 5.28666C18.1883 5.82633 17.5202 6.55649 17.2657 7.15965C15.9932 10.1438 14.2435 12.7469 11.6349 14.7469C9.94881 16.0485 8.00823 16.8104 6.13128 17.6992C5.46321 18.0484 4.89058 17.7945 5.01784 16.8103Z" fill="#959696"/>
<path d="M36.8977 16.9732C36.9931 17.9573 36.3251 17.9573 35.7524 17.7351C32.094 16.2113 28.7854 14.2114 26.5267 10.7511C25.6678 9.4495 25.2542 7.98919 24.4271 6.71936C24.1408 6.27492 23.8226 5.57652 24.0771 5.25906C24.4271 4.81462 25.1906 5.03684 25.6996 5.22731C28.3401 6.17969 30.7578 7.54475 32.7302 9.54473C34.4799 11.3225 35.5934 13.5129 36.5796 15.7669C36.8022 16.1478 36.8341 16.5605 36.8977 16.9732Z" fill="#959696"/>
<path d="M17.3902 36.9145C15.4178 36.7558 14.0499 35.9304 12.7774 35.2003C9.27796 33.232 6.92382 30.2162 5.42862 26.5019C5.26955 26.121 5.1423 25.7083 5.07868 25.2956C4.8878 24.3115 5.26956 23.8353 6.28756 24.248C10.9004 26.1845 14.8134 28.8829 16.754 33.7717C17.0403 34.5019 17.5175 35.1685 17.772 35.8987C17.931 36.4701 17.8038 36.978 17.3902 36.9145Z" fill="#959696"/>
<path d="M23.9141 36.7773C25.791 30.6821 29.6404 26.5551 35.4939 24.3012C35.9075 24.1425 36.3847 23.9202 36.671 24.2059C37.0845 24.6186 36.8937 25.2218 36.7346 25.698C35.812 28.1742 34.635 30.4599 32.758 32.3963C30.8174 34.3963 28.4315 35.6662 25.8865 36.6503C25.282 36.9042 24.6458 36.9042 23.9141 36.7773Z" fill="#959696"/>
</svg>

<svg xmlns="http://www.w3.org/2000/svg" width="42" height="42" fill="none"><path fill="#959696" d="M0 21C0 9.402 9.402 0 21 0s21 9.402 21 21-9.402 21-21 21S0 32.598 0 21Z"/><circle cx="21" cy="21" r="19" fill="#030303"/><path fill="#EEE" d="M29.23 20.938c.19.984-.382 1.492-1.177 1.777-2.609.953-4.422 2.667-5.313 5.334-.286.825-.86 1.206-1.813 1.238-.987 0-1.496-.476-1.782-1.27-.922-2.635-2.704-4.38-5.345-5.302-.827-.285-1.208-.857-1.177-1.809 0-.984.478-1.492 1.273-1.778 2.609-.889 4.326-2.603 5.217-5.206.318-.889.891-1.27 1.909-1.27s1.463.572 1.718 1.333c.89 2.604 2.64 4.318 5.249 5.175.859.286 1.431.794 1.24 1.778Z"/><path fill="#959696" d="M5.018 16.81c.763-2.349 1.813-4.54 3.404-6.476 1.909-2.317 4.422-3.778 7.126-4.92.668-.286 1.527-.699 2.1-.127.54.54-.128 1.27-.382 1.873-1.273 2.984-3.022 5.587-5.631 7.587-1.686 1.302-3.627 2.063-5.504 2.952-.668.35-1.24.095-1.113-.889ZM36.898 16.973c.095.984-.573.984-1.146.762-3.658-1.524-6.967-3.524-9.225-6.984-.86-1.301-1.273-2.762-2.1-4.032-.286-.444-.604-1.142-.35-1.46.35-.444 1.114-.222 1.623-.032 2.64.953 5.058 2.318 7.03 4.318 1.75 1.777 2.863 3.968 3.85 6.222.222.38.254.794.318 1.206ZM17.39 36.914c-1.972-.158-3.34-.984-4.613-1.714-3.499-1.968-5.853-4.984-7.348-8.698a5.25 5.25 0 0 1-.35-1.206c-.191-.985.19-1.46 1.209-1.048 4.612 1.936 8.525 4.635 10.466 9.524.286.73.763 1.397 1.018 2.127.159.571.032 1.079-.382 1.015ZM23.914 36.777c1.877-6.095 5.726-10.222 11.58-12.476.413-.159.89-.38 1.177-.095.413.413.223 1.016.064 1.492-.923 2.476-2.1 4.762-3.977 6.698-1.94 2-4.327 3.27-6.872 4.254-.604.254-1.24.254-1.972.127Z"/></svg>
